assets/icons/standard/resource_preference.svg

<svg xmlns="http://www.w3.org/2000/svg" width="100" height="100" viewBox="0 0 100 100"><path d="M49.91,20A25.4,25.4,0,1,0,75.09,45.5C75.09,31.71,63.85,20,49.91,20ZM39.24,55.91a2.82,2.82,0,0,1-3,2.55H34.34a1.08,1.08,0,0,1-1.13-1V42.83a1.08,1.08,0,0,1,1.13-1h3.77a1.08,1.08,0,0,1,1.13,1ZM66.39,53c0,5.55-5.2,6.06-10.86,6.06-5.35,0-7.09-1.72-12.22-1.91a1,1,0,0,1-1.06-1V43.47a1.08,1.08,0,0,1,1.13-1,6.71,6.71,0,0,0,6.41-6.7V32a1.08,1.08,0,0,1,1.13-1h1.89a2.82,2.82,0,0,1,3,2.55V40a2.82,2.82,0,0,0,3,2.55h4.52a2.82,2.82,0,0,1,3,2.55Z" fill="#fff" fill-rule="evenodd"/><path d="M26,64.21H24.73A4.75,4.75,0,0,0,20,68.95v6.31A4.74,4.74,0,0,0,24.73,80H75.27A4.75,4.75,0,0,0,80,75.26V68.95a4.74,4.74,0,0,0-4.73-4.74H73.73a30.15,30.15,0,0,1-47.72,0Z" fill="#fff" fill-rule="evenodd"/></svg>

<?xml version="1.0"?><svg xmlns="http://www.w3.org/2000/svg" width="100" height="100" viewBox="0 0 100 100"><title></title><path d="m49.9 20a25.4 25.4 0 1 0 25.2 25.5c0-13.8-11.2-25.5-25.2-25.5z m-10.7 35.9a2.8 2.8 0 0 1-3 2.6h-1.9a1.1 1.1 0 0 1-1.1-1v-14.7a1.1 1.1 0 0 1 1.1-1h3.8a1.1 1.1 0 0 1 1.1 1z m27.2-2.9c0 5.5-5.2 6.1-10.9 6.1-5.3 0-7.1-1.8-12.2-1.9a1 1 0 0 1-1-1v-12.7a1.1 1.1 0 0 1 1.1-1 6.7 6.7 0 0 0 6.4-6.7v-3.8a1.1 1.1 0 0 1 1.1-1h1.9a2.8 2.8 0 0 1 3 2.5v6.5a2.8 2.8 0 0 0 3 2.5h4.5a2.8 2.8 0 0 1 3 2.6z m-40.4 11.2h-1.3a4.8 4.8 0 0 0-4.7 4.8v6.3a4.7 4.7 0 0 0 4.7 4.7h50.6a4.8 4.8 0 0 0 4.7-4.7v-6.3a4.7 4.7 0 0 0-4.7-4.8h-1.6a30.1 30.1 0 0 1-47.7 0z" fill="#fff" fill-rule="evenodd"></path></svg>
